X:0439
T:Dalkeith Maiden Bridge.
M:C|
L:1/8
Q:1/4=80 "Slow"
I: :: ||
Z:Jack Campin * www.campin.me.uk * 2009
K:E Minor
DE|G>FGA  B2AG |A>GAB         d3 e |d<BA>G A>cBA|({A}G2)E2 E2::
ef|g>fga Tg2eg |a>gab         a2ge |g3   a bage |    g2 d2 d2
ge|d<BA>G A2g>e|dB (c/B/A/G/) E2g>e|d<BA>G A>cBA| {A}G2 E2 E2:|
<end>
<start>
